svg/u1f3e2.svg

<svg viewBox="0 0 128 128" xmlns="http://www.w3.org/2000/svg">
  <path d="M7.26,32.16c0,0-3.57-5.64-4.27-7.15c-0.9-1.94,0.09-2.41,3.45-2.43c2.15-0.01,22.8,0,22.8,0h18.68 c0,0-0.14-6.72,0-7.08c0.14-0.35,31.57-0.07,31.71,0c0.14,0.07,0.07,7.08,0.07,7.08h18.6c0,0,23.46,0,24.45,0 c0.99,0,2.02,0.91,1.15,2.64s-3.29,5.07-3.29,5.07l-0.27,87.63l-6.95,3.88l-100.77-0.4l-5.35-3.07L7.26,32.16z" fill="#C8C8C8"/>
  <polygon points="28.96,119.32 28.96,29.81 61.9,24.79 98.24,30.1 98.24,119.32 64.12,121.09 " fill="#E1E1E1"/>
  <polygon points="28.97,22.57 98.29,22.58 98.24,30.1 28.96,29.81 " fill="#9A9A9A"/>
  <path d="M7.27,118.33l39.99-0.27c0,0-0.05-30.91,0-32.15c0.03-0.9,0.25-1.64,1.4-1.72s27.82-0.08,28.81-0.08 c0.98,0,1.72,0.57,1.72,1.97c0,1.4,0,31.93,0,31.93s41.17-0.38,41.15-0.07c-0.03,0.31,0.05,4.58,0.05,5.16c0,0.57-0.25,1.4-1.81,1.4 s-109.32,0-109.98,0c-0.66,0-1.31-0.66-1.31-1.48S7.27,118.33,7.27,118.33z" fill="#9A9A9A"/>
  <rect height="10.64" fill="#6CA4AB" width="17.96" x="54.73" y="32.93"/>
  <rect height="10.22" fill="#6CA4AB" width="18.14" x="54.64" y="50.21"/>
  <rect height="10.98" fill="#6CA4AB" width="18.31" x="54.47" y="67.5"/>
  <path d="M81.72,33.27c-0.09,0.26,0,10.56,0,10.56l10.96-0.03c0,0,0.15-10.4-0.06-10.61 S81.8,33.01,81.72,33.27z" fill="#6CA4AB"/>
  <polygon points="81.89,49.87 81.97,60.34 92.36,60.26 92.53,50.04 " fill="#6CA4AB"/>
  <path d="M82.4,67.58c0,0-0.26,10.13-0.09,10.39s10.05,0.26,10.39,0c0.34-0.26,0-10.3,0-10.3L82.4,67.58z" fill="#6CA4AB"/>
  <path d="M82.45,84.49l0.08,10.53c0,0,9.81,0.23,10.04,0s0.46-10.3,0.15-10.53 C92.41,84.26,82.45,84.49,82.45,84.49z" fill="#6CA4AB"/>
  <path d="M82.73,101.64l0.14,10.46c0,0,9.67,0.08,9.88-0.07s0.22-10.01,0.08-10.31S82.73,101.64,82.73,101.64z " fill="#6CA4AB"/>
  <path d="M104.48,111.94c0.12,0.15,10.43,0.15,10.43,0.15s0.32-10.3-0.05-10.45 c-0.27-0.12-10.47-0.27-10.61-0.15C103.93,101.78,104.39,111.83,104.48,111.94z" fill="#6CA4AB"/>
  <path d="M104.33,85.01c-0.16,0.4-0.3,10.53-0.08,10.61c0.23,0.08,10.08,0.15,10.38,0 c0.3-0.15,0.53-10.23,0.23-10.46S104.48,84.64,104.33,85.01z" fill="#6CA4AB"/>
  <path d="M104.11,78.32c0.27,0.34,10,0.3,10.3,0.15c0.3-0.15,0.15-9.93-0.08-10.3s-10-0.15-10.23,0.08 S103.81,77.94,104.11,78.32z" fill="#6CA4AB"/>
  <path d="M104.41,50.79c-0.19,0.38,0,9.78,0.15,10.08c0.15,0.3,9.93,0.3,10.08,0.08 c0.15-0.23,0.23-9.85,0.08-10.08C114.56,50.64,104.56,50.49,104.41,50.79z" fill="#6CA4AB"/>
  <path d="M104.63,43.72c0.27,0.27,10.08,0.08,10.3,0c0.23-0.08,0.15-10,0.08-10.38 c-0.08-0.38-10.15-0.15-10.46,0C104.26,33.49,104.26,43.34,104.63,43.72z" fill="#6CA4AB"/>
  <path d="M33.85,32.9c-0.09,0.26,0,10.56,0,10.56l10.9-0.17c0,0,0.21-10.26,0-10.47 C44.54,32.6,33.94,32.64,33.85,32.9z" fill="#6CA4AB"/>
  <path d="M34.1,50.17c0,0-0.27,10.21,0.07,10.38c0.34,0.17,10.1,0.26,10.44,0c0.34-0.26,0.06-10.48,0.06-10.48 L34.1,50.17z" fill="#6CA4AB"/>
  <path d="M34.27,67.6c-0.19,0.14-0.26,10.13-0.09,10.39c0.17,0.26,10.05,0.26,10.39,0 c0.34-0.26,0.26-10.05,0-10.3S34.61,67.35,34.27,67.6z" fill="#6CA4AB"/>
  <path d="M33.93,84.64c-0.27,0.27-0.15,10.3,0.08,10.53s10.04,0,10.04,0l0.15-10.53 C44.2,84.64,34.23,84.34,33.93,84.64z" fill="#6CA4AB"/>
  <polygon points="33.99,101.37 33.99,111.92 43.81,111.83 44.03,101.45 " fill="#6CA4AB"/>
  <path d="M12.86,111.83l10.3-0.08l0.07-10.48c0,0-10.38-0.27-10.6,0.11 C12.41,101.75,12.86,111.83,12.86,111.83z" fill="#6CA4AB"/>
  <path d="M12.71,84.9c-0.16,0.4-0.3,10.53-0.08,10.61c0.23,0.08,10.08,0.15,10.38,0 c0.3-0.15,0.53-10.23,0.23-10.46S12.86,84.52,12.71,84.9z" fill="#6CA4AB"/>
  <path d="M12.48,78.21c0.27,0.34,10,0.3,10.3,0.15c0.3-0.15,0.15-9.93-0.08-10.3 c-0.23-0.38-10-0.15-10.23,0.08C12.26,68.35,12.18,77.83,12.48,78.21z" fill="#6CA4AB"/>
  <path d="M12.78,50.68c-0.19,0.38,0,9.78,0.15,10.08c0.15,0.3,9.93,0.3,10.08,0.08 c0.15-0.23,0.23-9.85,0.08-10.08C22.94,50.53,12.93,50.38,12.78,50.68z" fill="#6CA4AB"/>
  <path d="M13.01,43.61c0.27,0.27,10.08,0.08,10.3,0c0.23-0.08,0.15-10,0.08-10.38s-10.15-0.15-10.46,0 C12.63,33.38,12.63,43.23,13.01,43.61z" fill="#6CA4AB"/>
  <path d="M51.76,118.36c-0.07-0.07-0.21-19.97,0.07-20.33c0.29-0.36,22.84-0.14,23.05,0.07 s0.14,20.12,0.07,20.26S51.76,118.36,51.76,118.36z" fill="#E1E1E1"/>
  <rect height="16.66" fill="#536F7B" width="8.47" x="53.88" y="99.97"/>
  <rect height="16.66" fill="#536F7B" width="8.65" x="64.53" y="99.94"/>
</svg>

<svg viewBox="0 0 128 128" xmlns="http://www.w3.org/2000/svg">
  <defs/>
  <path d="M7.26,32.16 C7.26,32.16 3.69,26.52 2.99,25.01 C2.09,23.07 3.08,22.6 6.44,22.58 C8.59,22.57 29.24,22.58 29.24,22.58 L47.92,22.58 C47.92,22.58 47.78,15.86 47.92,15.5 C48.06,15.15 79.49,15.43 79.63,15.5 C79.77,15.57 79.7,22.58 79.7,22.58 L98.3,22.58 C98.3,22.58 121.76,22.58 122.75,22.58 C123.74,22.58 124.77,23.49 123.9,25.22 C123.03,26.95 120.61,30.29 120.61,30.29 L120.34,117.92 L113.39,121.8 L12.62,121.4 L7.27,118.33 L7.26,32.16 Z" fill="#C8C8C8"/>
  <path d="M28.96,119.32 L28.96,29.81 L61.9,24.79 L98.24,30.1 L98.24,119.32 L64.12,121.09 Z" fill="#E1E1E1"/>
  <path d="M28.97,22.57 L98.29,22.58 L98.24,30.1 L28.96,29.81 Z" fill="#9A9A9A"/>
  <path d="M7.27,118.33 L47.26,118.06 C47.26,118.06 47.21,87.15 47.26,85.91 C47.29,85.01 47.51,84.27 48.66,84.19 C49.81,84.11 76.48,84.11 77.47,84.11 C78.45,84.11 79.19,84.68 79.19,86.08 C79.19,87.48 79.19,118.01 79.19,118.01 C79.19,118.01 120.36,117.63 120.34,117.94 C120.31,118.25 120.39,122.52 120.39,123.1 C120.39,123.67 120.14,124.5 118.58,124.5 C117.02,124.5 9.26,124.5 8.6,124.5 C7.94,124.5 7.29,123.84 7.29,123.02 C7.29,122.2 7.27,118.33 7.27,118.33 Z" fill="#9A9A9A"/>
  <path d="M54.73,32.93 L72.69,32.93 L72.69,43.57 L54.73,43.57 L54.73,32.93 Z" fill="#6CA4AB"/>
  <path d="M54.64,50.21 L72.78,50.21 L72.78,60.43 L54.64,60.43 L54.64,50.21 Z" fill="#6CA4AB"/>
  <path d="M54.47,67.5 L72.78,67.5 L72.78,78.48 L54.47,78.48 L54.47,67.5 Z" fill="#6CA4AB"/>
  <path d="M81.72,33.27 C81.63,33.53 81.72,43.83 81.72,43.83 L92.68,43.8 C92.68,43.8 92.83,33.4 92.62,33.19 C92.41,32.98 81.8,33.01 81.72,33.27 Z" fill="#6CA4AB"/>
  <path d="M81.89,49.87 L81.97,60.34 L92.36,60.26 L92.53,50.04 Z" fill="#6CA4AB"/>
  <path d="M82.4,67.58 C82.4,67.58 82.14,77.71 82.31,77.97 C82.48,78.23 92.36,78.23 92.7,77.97 C93.04,77.71 92.7,67.67 92.7,67.67 L82.4,67.58 Z" fill="#6CA4AB"/>
  <path d="M82.45,84.49 L82.53,95.02 C82.53,95.02 92.34,95.25 92.57,95.02 C92.8,94.79 93.03,84.72 92.72,84.49 C92.41,84.26 82.45,84.49 82.45,84.49 Z" fill="#6CA4AB"/>
  <path d="M82.73,101.64 L82.87,112.1 C82.87,112.1 92.54,112.18 92.75,112.03 C92.96,111.88 92.97,102.02 92.83,101.72 C92.69,101.42 82.73,101.64 82.73,101.64 Z" fill="#6CA4AB"/>
  <path d="M104.48,111.94 C104.6,112.09 114.91,112.09 114.91,112.09 C114.91,112.09 115.23,101.79 114.86,101.64 C114.59,101.52 104.39,101.37 104.25,101.49 C103.93,101.78 104.39,111.83 104.48,111.94 Z" fill="#6CA4AB"/>
  <path d="M104.33,85.01 C104.17,85.41 104.03,95.54 104.25,95.62 C104.48,95.7 114.33,95.77 114.63,95.62 C114.93,95.47 115.16,85.39 114.86,85.16 C114.56,84.93 104.48,84.64 104.33,85.01 Z" fill="#6CA4AB"/>
  <path d="M104.11,78.32 C104.38,78.66 114.11,78.62 114.41,78.47 C114.71,78.32 114.56,68.54 114.33,68.17 C114.1,67.8 104.33,68.02 104.1,68.25 C103.87,68.48 103.81,77.94 104.11,78.32 Z" fill="#6CA4AB"/>
  <path d="M104.41,50.79 C104.22,51.17 104.41,60.57 104.56,60.87 C104.71,61.17 114.49,61.17 114.64,60.95 C114.79,60.72 114.87,51.1 114.72,50.87 C114.56,50.64 104.56,50.49 104.41,50.79 Z" fill="#6CA4AB"/>
  <path d="M104.63,43.72 C104.9,43.99 114.71,43.8 114.93,43.72 C115.16,43.64 115.08,33.72 115.01,33.34 C114.93,32.96 104.86,33.19 104.55,33.34 C104.26,33.49 104.26,43.34 104.63,43.72 Z" fill="#6CA4AB"/>
  <path d="M33.85,32.9 C33.76,33.16 33.85,43.46 33.85,43.46 L44.75,43.29 C44.75,43.29 44.96,33.03 44.75,32.82 C44.54,32.6 33.94,32.64 33.85,32.9 Z" fill="#6CA4AB"/>
  <path d="M34.1,50.17 C34.1,50.17 33.83,60.38 34.17,60.55 C34.51,60.72 44.27,60.81 44.61,60.55 C44.95,60.29 44.67,50.07 44.67,50.07 L34.1,50.17 Z" fill="#6CA4AB"/>
  <path d="M34.27,67.6 C34.08,67.74 34.01,77.73 34.18,77.99 C34.35,78.25 44.23,78.25 44.57,77.99 C44.91,77.73 44.83,67.94 44.57,67.69 C44.31,67.44 34.61,67.35 34.27,67.6 Z" fill="#6CA4AB"/>
  <path d="M33.93,84.64 C33.66,84.91 33.78,94.94 34.01,95.17 C34.24,95.4 44.05,95.17 44.05,95.17 L44.2,84.64 C44.2,84.64 34.23,84.34 33.93,84.64 Z" fill="#6CA4AB"/>
  <path d="M33.99,101.37 L33.99,111.92 L43.81,111.83 L44.03,101.45 Z" fill="#6CA4AB"/>
  <path d="M12.86,111.83 L23.16,111.75 L23.23,101.27 C23.23,101.27 12.85,101 12.63,101.38 C12.41,101.75 12.86,111.83 12.86,111.83 Z" fill="#6CA4AB"/>
  <path d="M12.71,84.9 C12.55,85.3 12.41,95.43 12.63,95.51 C12.86,95.59 22.71,95.66 23.01,95.51 C23.31,95.36 23.54,85.28 23.24,85.05 C22.94,84.82 12.86,84.52 12.71,84.9 Z" fill="#6CA4AB"/>
  <path d="M12.48,78.21 C12.75,78.55 22.48,78.51 22.78,78.36 C23.08,78.21 22.93,68.43 22.7,68.06 C22.47,67.68 12.7,67.91 12.47,68.14 C12.26,68.35 12.18,77.83 12.48,78.21 Z" fill="#6CA4AB"/>
  <path d="M12.78,50.68 C12.59,51.06 12.78,60.46 12.93,60.76 C13.08,61.06 22.86,61.06 23.01,60.84 C23.16,60.61 23.24,50.99 23.09,50.76 C22.94,50.53 12.93,50.38 12.78,50.68 Z" fill="#6CA4AB"/>
  <path d="M13.01,43.61 C13.28,43.88 23.09,43.69 23.31,43.61 C23.54,43.53 23.46,33.61 23.39,33.23 C23.32,32.85 13.24,33.08 12.93,33.23 C12.63,33.38 12.63,43.23 13.01,43.61 Z" fill="#6CA4AB"/>
  <path d="M51.76,118.36 C51.69,118.29 51.55,98.39 51.83,98.03 C52.12,97.67 74.67,97.89 74.88,98.1 C75.09,98.31 75.02,118.22 74.95,118.36 C74.88,118.5 51.76,118.36 51.76,118.36 Z" fill="#E1E1E1"/>
  <path d="M53.88,99.97 L62.35,99.97 L62.35,116.63 L53.88,116.63 L53.88,99.97 Z" fill="#536F7B"/>
  <path d="M64.53,99.94 L73.18,99.94 L73.18,116.6 L64.53,116.6 L64.53,99.94 Z" fill="#536F7B"/>
</svg>
